!!!OTL: OLL MANN WULL RIEDEN
!!!ARE: Europa, Mitteleuropa, Deutschland, Pommern
!!!SCT: E1755
!!!YEM: Copyright 1995, estate of Helmut Schaffrath.
**kern
*ICvox
*Ivox
*M3/8
*k[b-]
*F:
=1
{8f
8f
8g
=2
8e
8d}
{8c
=3
8f
16f
16e
16f
16a
=4
4g
8r}
=5
{8b-
8b-
16b-
16b-
=6
8a
8g
8f}
=7
{8g
8g
8a
=8
8f
16e
16d
8c}
=9
{8f
8f
8a
=10
8g
8f
8r}
==
!!!AGN: Scherz - Lied
!!!ONB: ESAC (Essen Associative Code) Database: ERK3
!!!AMT: simple triple
!!!AIN: vox
!!!EED: Helmut Schaffrath
!!!EEV: 1.0
*-
